X:1
T:Title
%%score 1 2
L:1/8
M:3/2
K:C
V:1 treble nm="Part_1"
V:2 treble-8 nm="Part_2"
V:1
 G8 G4 | A6 c2 B2 A2 | c4 B2 G2 A4 | B4 A2 G4 ^F2 | G8 A4 | B8 c4 | d4 c2 c4 B2 | c8 A4 | G8 A4 | %9
 B4 c6 B2 | B4 A6 G2 | G6 ^F2 F2 E2 | G8 z4 | A8 G4 | F4 D4 F4 | G4 A2 B4 A2 | c6 B2 A3 G | %17
 G6 F2 F2 E2 | G12 || G6 F2 G2 A2 | B8 c4 | d6 c2 A2 c2 | B4 A2 G4 ^F2 | G4 z4 A2 B2 | %24
 c2 B2 c4 B2 G2 | A4 G2 G4 ^F2 | G4 z4 B2 c2 | d6 c4 B2 | d8 z4 | d4 c4 d4 | G12 | A8 G4 | %32
 F4 E4 F4 | G6 A2 c4 | B2 A3 G G3 ^F FE | G12 || G4 G4 A2 B2 | c8 B4 | A4 G2 ^F4 E2 | G8 z4 | %40
 A4 B2 B4 A2 | B4 c4 d2 e2 | c6 B2 B2 A2 | c12 | z12 | G8 A4 | B8 c4 | B2 A3 G G4 ^F2 | G8 A4 | %49
 G8 F4 | E8 F4 | G6 A2 B2 G2 | A2 c4 B2 A3 G | G6 ^F2 F2 E2 | G12 |] %55
V:2
 G8 B4 | A4 c2 e2 d4 | e4 B4 c4 | d4 c2 B2 A4 | G4 B4 c4 | B8 E4 | F4 E2 C2 D4 | C8 c4 | B8 A4 | %9
 d4 e8 | d4 c8 | B4 A8 | G12 | c8 B4 | A4 F4 A4 | G8 d4- | d4 e4 c4 | B4 A8 | G12 || G8 B4 | %20
 d8 e4 | d6 e2 c4 | d4 c2 B2 A4 | G8 c2 d2 | e8 d2 B2 | c4 B2 G2 A4 | G4 E4 D4 | F4 E8 | D12 | %29
 D4 E4 F4 | G8 B4 | c8 B4 | A4 E4 A4 | G4 B2 c4 e2 | d4 c2 B2 A4 | G12 || G8 c2 d2 | e8 d4 | %38
 c4 B4 A4 | G8 B4 | c4 d4 c4 | B4 z2 E2 F4 | E4 D6 C2 | C12 | G8 A4 | B8 c4 | B4 d4 e4 | %47
 d3 c c2 B2 A4 | G8 c4 | B8 A4 | E4 G4 A4 | G4 B2 c2 B4 | c4 e2 d2 c4 | B4 A8 | G12 |] %55

